app/images/fish-icon.svg

<svg width="67" height="44" viewBox="0 0 67 44" fill="none" xmlns="http://www.w3.org/2000/svg">
<path d="M35.5312 9.8125C41.969 11.2434 47.4839 15.9426 50.8037 18.4176C51.7615 17.5985 52.7708 16.8323 53.8265 16.123C58.4425 13.0105 63.9688 12.625 63.9688 12.625C63.9688 12.625 62.5253 18.6637 58.718 21.9801C62.5253 25.2977 63.9688 31.3363 63.9688 31.3363C63.9688 31.3363 58.4425 30.9508 53.8265 27.8383C52.7797 27.1352 51.7789 26.3756 50.8291 25.5637C47.5156 28.041 41.9754 32.752 35.5312 34.1875L37.5625 40.75C32.5567 39.9684 27.551 36.5887 25.5375 35.0957C9.125 34.4219 3.03125 24.6953 3.03125 22C3.03125 19.4219 9.125 9.57813 25.488 8.90664C27.4672 7.44297 32.5148 4.0375 37.5625 3.25L35.5312 9.8125Z" stroke="#A61D1D" stroke-width="5" stroke-linejoin="round"/>
<path d="M13.1875 21.9988C12.0657 21.9988 11.1562 21.1593 11.1562 20.1238C11.1562 19.0882 12.0657 18.2488 13.1875 18.2488C14.3093 18.2488 15.2188 19.0882 15.2188 20.1238C15.2188 21.1593 14.3093 21.9988 13.1875 21.9988Z" fill="#A61D1D"/>
<path d="M17.9647 33.7188C20.203 30.1588 21.3818 26.116 21.3818 22C21.3818 17.884 20.203 13.8412 17.9647 10.2812" stroke="#A61D1D" stroke-width="5" stroke-miterlimit="20" stroke-linecap="round"/>
</svg>

<svg width="67" height="44" fill="none" xmlns="http://www.w3.org/2000/svg"><path d="M35.531 9.813c6.438 1.43 11.953 6.13 15.273 8.605a32.764 32.764 0 0 1 3.023-2.295c4.616-3.113 10.142-3.498 10.142-3.498s-1.444 6.039-5.251 9.355c3.807 3.318 5.25 9.356 5.25 9.356s-5.526-.385-10.142-3.498a32.506 32.506 0 0 1-2.997-2.274c-3.313 2.477-8.854 7.188-15.298 8.623l2.032 6.563c-5.006-.782-10.012-4.161-12.026-5.654C9.126 34.422 3.032 24.696 3.032 22c0-2.578 6.094-12.422 22.457-13.093 1.98-1.464 7.027-4.87 12.075-5.657L35.53 9.813Z" stroke="#A61D1D" stroke-width="5" stroke-linejoin="round"/><path d="M13.188 21.999c-1.122 0-2.032-.84-2.032-1.875 0-1.036.91-1.875 2.031-1.875 1.122 0 2.032.84 2.032 1.875 0 1.035-.91 1.875-2.031 1.875Z" fill="#A61D1D"/><path d="M17.965 33.719c2.238-3.56 3.417-7.603 3.417-11.719s-1.179-8.159-3.417-11.719" stroke="#A61D1D" stroke-width="5" stroke-miterlimit="20" stroke-linecap="round"/></svg>
